X:220
T: Mike Dugger's
C: BB
M: 4/4
R: reel
Q: 1/8=350
L: 1/8
K: D
"Bm"DFBF AFEF|"D"AdBA "A"FE (3EDE|"Bm"DFBF "D"ABde|"F#m7"faec "Bm"BAFE|
"Bm"DFBF AFEF|"D"DFAB "A"ABce|"D"fd (3dcd "G"BG (3GFG|"A7"EGAG "D"FD D2 :|
"A"cA (3A^GA eA (3A^GA|"D"dfaf "Bm"bfaf|"F#m"ecef "A7"gfec|"D"dfec dafd|
"A"cA (3A^GA eA (3A^GA|"D"dfaf "Bm"bfaf|"G"gfed "Bm"fdBF|"A7"Acec"D"d4 :|
